build/category/MartiniOutline.svg

<svg xmlns="http://www.w3.org/2000/svg" fill="none" viewBox="0 0 24 24" focusable="false"><path d="M0 0H24V24H0z"/><path fill="#74767B" fill-rule="evenodd" d="M11.35 14.2199L11.35 19.7001L7.65006 19.7001C7.29108 19.7001 7.00006 19.9911 7.00006 20.3501C7.00006 20.7091 7.29108 21.0001 7.65006 21.0001L16.3501 21.0001C16.709 21.0001 17.0001 20.7091 17.0001 20.3501C17.0001 19.9911 16.709 19.7001 16.3501 19.7001L12.65 19.7001L12.65 14.2241L20.2232 5.13224C20.9288 4.28551 20.3267 3 19.2245 3L4.77563 3C3.67344 3 3.07134 4.28552 3.77694 5.13224C6.30031 8.16219 8.82492 11.1911 11.35 14.2199ZM12.0019 12.9672L9.15493 9.55497C9.3626 9.58022 9.58126 9.59413 9.811 9.59413C11.1821 9.59413 12.1673 9.10025 12.9606 8.87073C13.5978 8.68639 14.3163 8.57764 15.4306 8.85028L12.0019 12.9672ZM16.3432 7.75758C14.6762 7.23027 13.5773 7.33899 12.5993 7.62195C11.5379 7.92905 10.9369 8.29413 9.811 8.29413C8.33642 8.29413 7.50058 7.5379 7.24785 7.26667L4.77563 4.3L19.2245 4.3L16.3432 7.75758Z"/></svg>

<svg xmlns="http://www.w3.org/2000/svg" fill="none" viewBox="0 0 24 24" focusable="false"><path fill="#74767B" fill-rule="evenodd" d="M11.35 14.21v5.49H7.64c-.35 0-.64.29-.64.65 0 .35.29.65.64.65h8.71c.35 0 .65-.3.65-.65 0-.36-.3-.65-.65-.65h-3.71v-5.48l7.58-9.09c.7-.85.1-2.13-1-2.13H4.77c-1.1 0-1.7 1.28-1 2.13 2.53 3.03 5.05 6.06 7.58 9.08m.65-1.25L9.15 9.55c.21.03.43.04.66.04 1.37 0 2.35-.49 3.15-.72.63-.19 1.35-.3 2.47-.02zm4.34-5.21c-1.67-.52-2.77-.42-3.75-.13-1.06.3-1.66.67-2.78.67-1.48 0-2.31-.76-2.57-1.03L4.77 4.3h14.45z"/></svg>
